svgs/sharp-regular/basket-shopping.svg

<svg xmlns="http://www.w3.org/2000/svg" viewBox="0 0 576 512"><!--! Font Awesome Pro 6.6.0 by @fontawesome - https://fontawesome.com License - https://fontawesome.com/license (Commercial License) Copyright 2024 Fonticons, Inc. --><path d="M256.4 29.8L245.3 51.1 171.8 192l232.5 0L330.7 51.1 319.6 29.8 362.2 7.6l11.1 21.3L458.4 192l36.1 0 49.5 0 32 0 0 48-44 0L464 512l-352 0L44 240 0 240l0-48 32 0 49.5 0 36.1 0L202.7 28.9 213.8 7.6l42.6 22.2zM93.5 240l56 224 277 0 56-224-389 0zM224 312l0 80 0 24-48 0 0-24 0-80 0-24 48 0 0 24zm88-24l0 24 0 80 0 24-48 0 0-24 0-80 0-24 48 0zm88 24l0 80 0 24-48 0 0-24 0-80 0-24 48 0 0 24z"/></svg>

<svg xmlns="http://www.w3.org/2000/svg" viewBox="0 0 576 512"><!--! Font Awesome Pro 6.4.2 by @fontawesome - https://fontawesome.com License - https://fontawesome.com/license (Commercial License) Copyright 2023 Fonticons, Inc. --><path d="M256.4 29.8L245.3 51.1 171.8 192H404.2L330.7 51.1 319.6 29.8 362.2 7.6l11.1 21.3L458.4 192h36.1H544h32v48H532L464 512H112L44 240H0V192H32 81.5h36.1L202.7 28.9 213.8 7.6l42.6 22.2zM93.5 240l56 224h277l56-224H93.5zM224 312v80 24H176V392 312 288h48v24zm88-24v24 80 24H264V392 312 288h48zm88 24v80 24H352V392 312 288h48v24z"/></svg>
